!!!COM: Byrd, William
!!!CDT: ~1540///-1623/07/04/
!!!OTL: Ne irascaris Domine
**kern	**kern	**kern	**kern	**kern
*staff5	*staff4	*staff3	*staff2	*staff1
*Ivox	*Ivox	*Ivox	*Ivox	*Ivox
*clefF4	*clefF4	*clefGv2	*clefGv2	*clefG2
*k[b-]	*k[b-]	*k[b-]	*k[b-]	*k[b-]
*M2/2	*M2/2	*M2/2	*M2/2	*M2/2
*MM120	*MM120	*MM120	*MM120	*MM120
=1-	=1-	=1-	=1-	=1-
2r	2r	1F	1r	1r
2FF/	2C/	.	.	.
=2	=2	=2	=2	=2
2.BB-/	2.D\	2.F/	1r	1r
4AA/	4C/	4F/	.	.
=3	=3	=3	=3	=3
4.BB-/	2D\	2F/	1r	1r
8C/	.	.	.	.
4D\	4BB-/	2F/	.	.
4D\	[4F\	.	.	.
=4	=4	=4	=4	=4
2C/	4F\]	2.G/	1r	1r
.	8E\L	.	.	.
.	8D\J	.	.	.
4.C/	2E\	.	.	.
.	.	4G/	.	.
8D\	.	.	.	.
=5	=5	=5	=5	=5
8E\L	4.C/	2G/	1r	1r
8F\J	.	.	.	.
4G\	.	.	.	.
.	8D\L	.	.	.
4.GG/	8E\	4G/	.	.
.	8F\J	.	.	.
.	[4G\	[4B-\	.	.
8AA/	.	.	.	.
=6	=6	=6	=6	=6
8BB-/L	8G\L]	8B-\L]	2r	1r
8C/J	8F\J	8A\J	.	.
4D\	2F\	4F/	.	.
2C/	.	2G/	[2c\	.
.	4E\	.	.	.
=7	=7	=7	=7	=7
1FF	1F	2A/	1c]	1f
.	.	2F/	.	.
=8	=8	=8	=8	=8
1r	1r	2.B-\	2.d\	2.f/
.	.	4A/	4c\	4f/
=9	=9	=9	=9	=9
1r	1r	4.B-\	2d\	2f/
.	.	8c\	.	.
.	.	4d\	4B-\	2f/
.	.	4d\	[4f\	.
=10	=10	=10	=10	=10
1r	1r	2c\	4f\]	2.g/
.	.	.	8e\L	.
.	.	.	8d\J	.
.	.	4r	2e\	.
.	.	[4c\	.	4g/
=11	=11	=11	=11	=11
1r	1r	4c\]	4c\	2g/
.	.	4B-\	4d\	.
.	.	4c\	8e\L	4g/
.	.	.	8f\J	.
.	.	8G/L	[4g\	[4b-\
.	.	8A/J	.	.
=12	=12	=12	=12	=12
1r	2r	8B-\L	8g\L]	8b-\L]
.	.	8c\J	8f\J	8a\J
.	.	4d\	2f\	4f/
.	2C/	2c\	.	2g/
.	.	.	4e\	.
=13	=13	=13	=13	=13
1FF	4C/	2F/	2f\	2a/
.	2F\	.	.	.
.	.	2A/	2c\	4r
.	4F\	.	.	[4f/
=14	=14	=14	=14	=14
2.BB-/	2F\	2B-\	2d\	4f/]
.	.	.	.	2b-\
.	2F\	4B-\	4d\	.
4BB-/	.	[4B-\	[4d\	4b-\
=15	=15	=15	=15	=15
4GG/	2.G\	4B-\]	8d\L]	4b-\
.	.	.	8c\J	.
4C/	.	4e-\	2c\	4g/
4.GG/	.	4.d\	.	4.g/
.	4G\	.	4B-\	.
8GG/	.	8d\	.	8g/
=16	=16	=16	=16	=16
2C/	4G\	4c\	4c\	4g/
.	8E\L	4r	8G/L	2g/
.	8F\	.	8A/	.
2r	8G\	4.d\	8B-/	.
.	8A\J	.	8c/J	.
.	[4B-\	.	[4d\	4f/
.	.	8c\	.	.
=17	=17	=17	=17	=17
1r	8B-\L]	8d\L	4d\]	4g/
.	8A\J	8e\J	.	.
.	4F\	2f\	4c\	4a/
.	2G\	.	2B-\	2b-\
.	.	4e\	.	.
=18	=18	=18	=18	=18
4r	2F\	2f\	2c\	2a/
2FF/	.	.	.	.
.	[2F\	4r	2c\	4r
4FF/	.	4c\	.	4a/
=19	=19	=19	=19	=19
2F\	4F\]	4c\	4c\	4a/
.	4F\	4c\	2f\	4a/
2BB-/	2F\	2d\	.	2b-\
.	.	.	8e\L	.
.	.	.	8d\J	.
=20	=20	=20	=20	=20
1C	4E\	2c\	2e\	2g/
.	4G\	.	.	.
.	2c\	4r	2e\	4g/
.	.	4C/	.	4a/
=21	=21	=21	=21	=21
2.D\	4B-\	4.F/	2.d\	8a/L
.	.	.	.	8g/
.	4.A\	.	.	8f/
.	.	8G/	.	8e/J
.	.	4A/	.	4f/
.	8G\L	.	.	.
4D\	8F\	4A/	4d\	4f/
.	8D\J	.	.	.
=22	=22	=22	=22	=22
1AA	2E\	1A	2c#\	1e
.	4r	.	2c#\	.
.	4A\	.	.	.
=23	=23	=23	=23	=23
1r	4G\	1r	2.d\	4r
.	4F\	.	.	4a/
.	4.B-\	.	.	4g/
.	.	.	4d\	4f/
.	8A\	.	.	.
=24	=24	=24	=24	=24
1r	4G\	1r	4d\	4.b-\
.	4F\	.	4f\	.
.	.	.	.	8a/
.	4c\	.	4e\	4g/
.	4d\	.	8d\L	4f/
.	.	.	[8f\J	.
=25	=25	=25	=25	=25
2r	2c\	2r	8f\]	2g/
.	.	.	16e\LL	.
.	.	.	16d\JJ	.
.	.	.	4e\	.
4r	2F\	4r	2f\	2f/
4FF/	.	4A/	.	.
=26	=26	=26	=26	=26
4C/	4r	4G/	1r	1r
4D\	4A\	4F/	.	.
[2BB-/	4G\	4.B-\	.	.
.	4F\	.	.	.
.	.	8A/	.	.
=27	=27	=27	=27	=27
4BB-/]	4.B-\	4G/	1r	1r
4BB-/	.	4F/	.	.
.	8A\	.	.	.
[2C/	4G\	4E/	.	.
.	[4F\	4A/	.	.
=28	=28	=28	=28	=28
2C/]	4F\]	2G/	4r	1r
.	4E\	.	4e\	.
2FF/	4.F\	[2A/	4d\	.
.	.	.	4c\	.
.	8E\	.	.	.
=29	=29	=29	=29	=29
4r	4D\	2A/]	4.f\	4r
4AA/	4C/	.	.	4a/
.	.	.	8e\	.
4BB-/	2D\	4r	2d\	4g/
4D\	.	4A/	.	4f/
=30	=30	=30	=30	=30
2BB-/	4r	4G/	4d\	4.b-\
.	4D\	4F/	4.f\	.
.	.	.	.	8a/
2BB-/	4D\	4.B-\	.	4g/
.	.	.	8e\	.
.	4F\	.	4d\	4f/
.	.	8A/	.	.
=31	=31	=31	=31	=31
1C	4c\	4G/	8c\L	4e/
.	.	.	8G\J	.
.	4A\	4F/	4.c\	2f/
.	2G\	2c\	.	.
.	.	.	8B-\	.
.	.	.	4G/	4e/
=32	=32	=32	=32	=32
1FF	1F	2c\	1A	2f/
.	.	2r	.	[2cc\
=33	=33	=33	=33	=33
1F	1c	1A	2r	2cc\]
.	.	.	[2f\	2a/
=34	=34	=34	=34	=34
2FF/	2c\	2A/	2f\]	2r
2r	2r	2r	2c\	[2cc\
=35	=35	=35	=35	=35
1C	4.e-\	1G	2r	2cc\]
.	8d\L	.	.	.
.	8c\	.	[2e-\	2g/
.	8B-\J	.	.	.
.	[4c\	.	.	.
=36	=36	=36	=36	=36
1GG	4c\]	1G	4e-\]	2r
.	8B-\L	.	8d\L	.
.	8A\J	.	8c\J	.
.	4B-\	.	2d\	4.g/
.	[4d\	.	.	.
.	.	.	.	8a/
=37	=37	=37	=37	=37
4r	4d\]	4.G/	1r	8b-\L
.	.	.	.	8g\J
2G\	4d\	.	.	2b-\
.	.	8A/L	.	.
.	2d\	8B-/	.	.
.	.	8G/J	.	.
4F\	.	4A/	.	4a/
=38	=38	=38	=38	=38
4G\	2r	4.B-\	4.d\	4a/
4G\	.	.	.	4g/
.	.	8G/	8e\L	.
2D\	4.A\	4d\	8f\	2a/
.	.	.	8d\J	.
.	.	4d\	[4f\	.
.	8B-\	.	.	.
=39	=39	=39	=39	=39
2.F\	8c\L	2A/	4f\]	1r
.	8A\J	.	.	.
.	4.c\	.	4e-\	.
.	.	2r	4.d\	.
.	8B-\	.	.	.
4BB-/	[4B-\	.	.	.
.	.	.	8d\	.
=40	=40	=40	=40	=40
4F\	4B-\]	1f	2c\	2r
4F\	4A\	.	.	.
[2BB-/	[2B-\	.	2r	[2dd\
=41	=41	=41	=41	=41
2BB-/]	2B-\]	4d\	2r	2dd\]
.	.	2d\	.	.
2GG/	[2d\	.	[2g\	2b-\
.	.	8G/L	.	.
.	.	8A/J	.	.
=42	=42	=42	=42	=42
2GG/	2d\]	8B-\L	2g\]	2r
.	.	8c\	.	.
.	.	8d\	.	.
.	.	8B-\J	.	.
4.C/	2G\	2c\	2e\	4r
.	.	.	.	4cc\
8D\	.	.	.	.
=43	=43	=43	=43	=43
8E\L	1c	1r	4r	4cc\
8F\	.	.	.	.
8G\	.	.	4.g\	4b-\
8E\J	.	.	.	.
4F\	.	.	.	4.a/
.	.	.	8f\	.
4F\	.	.	[4f\	.
.	.	.	.	8a/
=44	=44	=44	=44	=44
2C/	2c\	4r	4f\]	2g/
.	.	2c\	4e\	.
2r	2F\	.	4f\	4r
.	.	4B-\	[4d\	[4f/
=45	=45	=45	=45	=45
1r	2r	4.A/	8d\L]	4f/]
.	.	.	8c\J	.
.	.	.	2c\	4e/
.	.	8c\	.	.
.	4r	2G/	.	4.d/
.	[4G\	.	4B-\	.
.	.	.	.	8d/
=46	=46	=46	=46	=46
2.C/	4G\]	4r	2c\	4.c/
.	4F\	4.A/	.	.
.	.	.	.	8d/
.	4E\	.	2r	4e/
.	.	8G/	.	.
4BB-/	4G\	[4G/	.	4d/
=47	=47	=47	=47	=47
4.AA/	4.C/	4G/]	4r	2c/
.	.	4F#/	2c\	.
8AA/	8D\	.	.	.
2GG/	4E\	2G/	.	4r
.	4D\	.	4B-\	[4g/
=48	=48	=48	=48	=48
4AA/	4C/	2.c\	4.A/	8g/L]
.	.	.	.	8f/J
4FF/	4.c\	.	.	2f/
.	.	.	8A/	.
4.C/	.	.	2G/	.
.	8B-\	.	.	.
.	4G\	4c\	.	4e/
8C/	.	.	.	.
=49	=49	=49	=49	=49
1FF	4A\	1c	4r	1f
.	4.F\	.	4.A/	.
.	8G\	.	8B-\	.
.	4A\	.	4c\	.
=50	=50	=50	=50	=50
1r	2B-\	1r	2d\	4r
.	.	.	.	4.f/
.	2F\	.	4c\	.
.	.	.	.	8g/
.	.	.	4f\	4a/
=51	=51	=51	=51	=51
1r	4r	1r	2d\	2b-\
.	4.G\	.	.	.
.	.	.	4r	[2g/
.	8A\L	.	.	.
.	8Bn\	.	4d\	.
.	8G\J	.	.	.
=52	=52	=52	=52	=52
1r	2.c\	1r	4e\	2g/]
.	.	.	8c\L	.
.	.	.	8d\	.
.	.	.	8e\	[2cc\
.	.	.	8c\J	.
.	4B-\	.	[4g\	.
=53	=53	=53	=53	=53
1r	4A\	1r	8g\L]	2cc\]
.	.	.	8f\J	.
.	8G\L	.	2f\	.
.	8F\J	.	.	.
.	4G\	.	.	2b-\
.	4G\	.	4e\	.
=54	=54	=54	=54	=54
4r	1F	4r	1f	1a
4.FF/	.	4.C/	.	.
8GG/	.	8BB-/	.	.
4AA/	.	4C/	.	.
=55	=55	=55	=55	=55
2BB-/	1r	2D/	4r	1r
.	.	.	4.F/	.
2FF/	.	4C/	.	.
.	.	.	8G/	.
.	.	[4F/	4A/	.
=56	=56	=56	=56	=56
4r	1r	4F/]	2c\	1r
4.C/	.	8E/L	.	.
.	.	8D/J	.	.
.	.	4E/	[2G/	.
8D\L	.	.	.	.
8E\	.	8C/L	.	.
8F\J	.	8D/J	.	.
=57	=57	=57	=57	=57
4G\	1r	8E/L	2G/]	1r
.	.	8F/	.	.
4.GG/	.	8G/	.	.
.	.	8A/J	.	.
.	.	4.B-\	[2d\	.
8AA/	.	.	.	.
[4BB-/	.	.	.	.
.	.	8A/	.	.
=58	=58	=58	=58	=58
8BB-/L]	1r	8G/L	4d\]	1r
8AA/J	.	8F/J	.	.
4FF/	.	2F/	4c\	.
2GG/	.	.	2B-\	.
.	.	4E/	.	.
=59	=59	=59	=59	=59
1FF	2r	1F	4A/	4r
.	.	.	4.A/	4.f/
.	4r	.	.	.
.	.	.	8B-\	8g/
.	[4F\	.	[4c\	4a/
=60	=60	=60	=60	=60
2r	8F\L]	1r	4c\]	2cc\
.	8G\J	.	.	.
.	4A\	.	2f\	.
4r	2c\	.	.	[2g/
4C/	.	.	8e\L	.
.	.	.	8d\J	.
=61	=61	=61	=61	=61
8C/L	2G\	2r	4e\	2g/]
8D/J	.	.	.	.
4E\	.	.	2c\	.
4.F\	4A\	4r	.	4r
.	4D\	[4F/	8d\L	[4a/
8E\	.	.	8e\J	.
=62	=62	=62	=62	=62
4D\	4D\	8F/L]	4f\	8a/L]
.	.	8G/J	.	8b-/J
4C/	4E\	4A/	4e\	4cc\
4BB-/	4F\	2B-\	8d\L	[2dd\
.	.	.	8c\	.
[4BB-/	[4F\	.	8d\	.
.	.	.	8e\J	.
=63	=63	=63	=63	=63
4BB-/]	8F\L]	4F/	2f\	4dd\]
.	8G\J	.	.	.
4AA/	4A\	2F/	.	4cc\
2GG/	2B-\	.	2r	4b-\
.	.	4E/	.	4g/
=64	=64	=64	=64	=64
2FF/	4.A\	4F/	4r	4.cc\
.	.	4.A/	4.c\	.
.	8G\	.	.	8b-\
2r	4F\	.	.	4a/
.	.	8B-\	8d\	.
.	4E\	4c\	4e\	4g/
=65	=65	=65	=65	=65
4r	4D\	2d\	4.f\	4b-\
4.F\	2D\	.	.	4a/
.	.	.	8d\	.
.	.	4A/	4f\	2a/
8G\	.	.	.	.
4A\	4C/	4c\	4e\	.
=66	=66	=66	=66	=66
2B-\	8BB-/L	4.F/	2d\	4r
.	8C/	.	.	.
.	8D/	.	.	4.f/
.	8E/J	8G/L	.	.
2A\	4F\	8A/	4r	.
.	.	8B-/	.	8g/
.	4F\	8c/	[4c\	4a/
.	.	8d/J	.	.
=67	=67	=67	=67	=67
2G\	2C/	4e\	8c\L]	4cc\
.	.	.	8d\J	.
.	.	4c\	4e\	4g/
4.D\	4r	4d\	2f\	4b-\
.	4F\	4d\	.	4a/
8E\	.	.	.	.
=68	=68	=68	=68	=68
4F\	8F\L	2A/	4c\	8a/L
.	8G\J	.	.	8g/J
4D\	4A\	.	4F/	4f/
2C/	4c\	2r	2G/	2e/
.	4G\	.	.	.
=69	=69	=69	=69	=69
2.D\	4B-\	4r	4.F/	4r
.	4A\	4.F/	.	4.a/
.	.	.	8G/	.
.	4D\	.	2A/	.
.	.	8G/	.	8b-\
4C/	4E\	4A/	.	4cc\
=70	=70	=70	=70	=70
4.BB-/	4F\	4B-\	4r	2dd\
.	4.B-\	4G/	4.d\	.
8GG/	.	.	.	.
4BB-/	.	2F/	.	4dd\
.	8B-\	.	8e\	.
4AA/	4c\	.	4f\	4cc\
=71	=71	=71	=71	=71
2GG/	2d\	4r	2.g\	4cc\
.	.	4.G/	.	4b-\
[2C/	4c\	.	.	4cc\
.	.	8E/	.	.
.	8C/L	4F/	4f\	4a/
.	8D/J	.	.	.
=72	=72	=72	=72	=72
1C_	8E/L	4G/	4e\	2cc\
.	8C/J	.	.	.
.	2c\	4A/	8c\L	.
.	.	.	8d\	.
.	.	2G/	8e\	4r
.	.	.	8c\J	.
.	4B-\	.	[4g\	8c/L
.	.	.	.	8d/J
=73	=73	=73	=73	=73
2C/]	4A\	2.c\	8g\L]	8e/L
.	.	.	8f\J	8c/J
.	8G\L	.	2f\	4.cc\
.	8F\J	.	.	.
2C/	4G\	.	.	.
.	.	.	.	8b-\
.	4G\	4c\	4e\	4g/
=74	=74	=74	=74	=74
1FF;	1F;	1c;	1f;	1a;
=75	=75	=75	=75	=75
*M2/2	*M2/2	*M2/2	*M2/2	*M2/2
1r	1r	1r	2.f\	1r
.	.	.	4e\	.
=76	=76	=76	=76	=76
1r	1r	1r	2d\	1r
.	.	.	2f\	.
=77	=77	=77	=77	=77
1r	1r	1r	4c\	2.cc\
.	.	.	4f\	.
.	.	.	4e\	.
.	.	.	[4d\	4b-\
=78	=78	=78	=78	=78
1r	2r	1r	4d\]	2a/
.	.	.	8c/L	.
.	.	.	8B-/	.
.	[2F\	.	8A/	2cc\
.	.	.	8G/	.
.	.	.	8A/	.
.	.	.	8B-/J	.
=79	=79	=79	=79	=79
1r	4F\]	1r	2c\	4f/
.	4E\	.	.	4g/
.	2D\	.	4.d\	4b-\
.	.	.	.	4a/
.	.	.	8c\	.
=80	=80	=80	=80	=80
1r	2F\	2r	8A/L	8a/L
.	.	.	8B-/J	8g/J
.	.	.	4A/	2f/
.	2C/	[2c\	2G/	.
.	.	.	.	4e/
=81	=81	=81	=81	=81
1r	4F\	4c\]	2F/	4.f/
.	4.D\	4B-\	.	.
.	.	.	.	8e/
.	.	2A/	[2f\	4d/
.	8E\L	.	.	.
.	8F\	.	.	4c/
.	8G\J	.	.	.
=82	=82	=82	=82	=82
1r	8A\L	2c\	4f\]	2c/
.	8B-\J	.	.	.
.	2c\	.	4e\	.
.	.	2G/	2d\	2r
.	4B-\	.	.	.
=83	=83	=83	=83	=83
2.F\	4c\	4A/	2f\	2r
.	2A\	4F/	.	.
.	.	2r	2c\	2cc\
4E\	4G\	.	.	.
=84	=84	=84	=84	=84
2D\	4.F\	1f	2d\	4b-\
.	.	.	.	2a/
.	8G\	.	.	.
2F\	2A\	.	4c\	.
.	.	.	4F/	4cc\
=85	=85	=85	=85	=85
2C/	4r	2e\	4.G/	4cc\
.	2c\	.	.	4g/
.	.	.	8A\L	.
2G\	.	2d\	8B-\	8g/L
.	.	.	8c\	8a/
.	4B-\	.	8d\	8b-/
.	.	.	8B-\J	8g/J
=86	=86	=86	=86	=86
2F\	4A\	2f\	4.c\	2a/
.	2c\	.	.	.
.	.	.	8d\	.
4r	.	4.c\	2e\	2g/
4C/	4G\	.	.	.
.	.	8d\	.	.
=87	=87	=87	=87	=87
4C/	8G\L	4e\	2g\	1r
.	8A\	.	.	.
4BB-/	8B-\	4d\	.	.
.	8G\J	.	.	.
2AA/	2A\	4c\	4f\	.
.	.	[4C/	[4e\	.
=88	=88	=88	=88	=88
2C/	1G	4C/]	8e\L]	2r
.	.	.	8d\J	.
.	.	4E/	2c\	.
2GG/	.	2D/	.	4r
.	.	.	4B-\	[4g/
=89	=89	=89	=89	=89
2C/	4r	1E	2c\	4g/]
.	2c\	.	.	4g/
2C/	.	.	2r	4a/
.	4c\	.	.	4e/
=90	=90	=90	=90	=90
1r	4d\	4r	1r	2f/
.	4A\	2c\	.	.
.	4c\	.	.	4e/
.	4A\	4c\	.	4cc\
=91	=91	=91	=91	=91
1r	4G\	4d\	2r	4b-\
.	4F\	4A/	.	4.a/
.	2G\	2B-\	4r	.
.	.	.	.	8g/
.	.	.	[4d\	[4g/
=92	=92	=92	=92	=92
1r	2D\	2A/	4d\]	4g/]
.	.	.	4d\	4f#/
.	2r	4r	4e\	2g/
.	.	[4G/	4B-\	.
=93	=93	=93	=93	=93
1r	1r	4G/]	4.d\	2r
.	.	4G/	.	.
.	.	.	8e\L	.
.	.	4A/	8f\	4r
.	.	.	8e\J	.
.	.	4E/	[4e\	4g/
=94	=94	=94	=94	=94
1r	2r	2F/	4e\]	4.a/
.	.	.	4d\	.
.	.	.	.	8b-\
.	4r	2E/	2e\	4cc\
.	[4G\	.	.	[4b-/
=95	=95	=95	=95	=95
1r	4G\]	1r	4d\	8b-/L]
.	.	.	.	8a/
.	4G\	.	4B-\	8g/
.	.	.	.	8f/
.	4A\	.	4.c\	8e/
.	.	.	.	8d/J
.	4E\	.	.	[4e/
.	.	.	8B-\	.
=96	=96	=96	=96	=96
2r	2F\	1r	2A/	4e/]
.	.	.	.	4d/
[2C/	4E\	.	2G/	[2e/
.	4G\	.	.	.
=97	=97	=97	=97	=97
4C/]	4.c\	2r	4r	2e/]
4C/	.	.	4e\	.
.	8B-\L	.	.	.
4D\	8A\	4r	4.f\	2r
.	8G\J	.	.	.
4AA/	4A\	[4F/	.	.
.	.	.	8e\	.
=98	=98	=98	=98	=98
2BB-/	4F\	4F/]	2d\	2r
.	4D\	4G/	.	.
4AA/	2E\	4A/	2c#\	4r
4AA/	.	4E/	.	[4a/
=99	=99	=99	=99	=99
2D\	4r	2F/	2d\	4a/]
.	4D\	.	.	4b-\
2AA/	2A\	4E/	4e\	4cc\
.	.	4r	4f\	4a/
=100	=100	=100	=100	=100
2r	2G\	2r	8e\L	2b-\
.	.	.	8d\J	.
.	.	.	2d\	.
4.AA/	4r	2E/	.	2a/
.	[4A\	.	4c#\	.
8AA/	.	.	.	.
=101	=101	=101	=101	=101
4D\	4A\]	4F#/	2d\	1r
4GG/	4B-\	4G/	.	.
4AA/	4c\	4E/	2r	.
4FF/	4A\	4F#/	.	.
=102	=102	=102	=102	=102
2GG/	2B-\	8E/L	4r	2r
.	.	8D/J	.	.
.	.	2D/	2d\	.
2r	2A\	.	.	4r
.	.	4C/	4e\	[4a/
=103	=103	=103	=103	=103
2r	4r	2D/	4f\	4a/]
.	4D\	.	4d\	4b-\
2AA/	4A\	2r	4.e\	4cc\
.	8G\L	.	.	4a/
.	8F\J	.	8f\	.
=104	=104	=104	=104	=104
2GG/	4.G\	4r	8e\L	2b-\
.	.	.	8d\J	.
.	.	4D/	2d\	.
.	8F\L	.	.	.
2AA/	8E\	2A/	.	2a/
.	8D\J	.	.	.
.	4E\	.	4c#\	.
=105	=105	=105	=105	=105
1D	2D\	1A	1d	1f#
.	2r	.	.	.
=106	=106	=106	=106	=106
1r	2F\	2c\	2f\	2a/
.	2F\	2c\	2f\	2a/
=107	=107	=107	=107	=107
1r	4r	4r	4r	4r
.	4F\	4c\	4f\	4a/
.	2B-\	2d\	2f\	2b-\
=108	=108	=108	=108	=108
1r	2F\	2c\	2f\	2a/
.	4F\	4A/	4c\	4f/
.	4E-\	[4B-\	[4e-\	[4g/
=109	=109	=109	=109	=109
1r	4E\	4B-\]	4e-\]	4g/]
.	4F\	4A/	4c\	4f/
.	4C/	4G/	4c\	8e/L
.	.	.	.	8c/J
.	4D\	4F/	4B-\	[4f/
=110	=110	=110	=110	=110
1r	2C/	2G/	1c	4f/]
.	.	.	.	4e/
.	2F\	2A/	.	2f/
=111	=111	=111	=111	=111
2FF/	2C/	2F/	2A/	1r
2FF/	2C/	2F/	2A/	.
=112	=112	=112	=112	=112
4r	4r	4r	4r	1r
4FF/	4C/	4F/	4A/	.
2BB-/	2D\	2F/	2B-\	.
=113	=113	=113	=113	=113
2FF/	4C/	2F/	2A/	1r
.	2F\	.	.	.
4F\	.	4A/	4c\	.
[4E-\	[4G\	[4B-\	[4e-\	.
=114	=114	=114	=114	=114
4E-\]	4G\]	4B-\]	4e-\]	1r
4BB-/	4F\	4B-\	4d\	.
[2C/	4E\	4A/	[2c\	.
.	[4F\	8G/L	.	.
.	.	8F/J	.	.
=115	=115	=115	=115	=115
4C/]	4F\]	4G/	4c\]	2r
4C/	4E\	4G/	4c\	.
[2FF/	[2F\	[2A/	2c\	4r
.	.	.	.	4f/
=116	=116	=116	=116	=116
1FF]	1F]	2A/]	4r	4.cc\
.	.	.	4c\	.
.	.	.	.	8b-\
.	.	2r	4.f\	4a/
.	.	.	.	4f/
.	.	.	8e\	.
=117	=117	=117	=117	=117
1r	2r	4r	4d\	4.b-\
.	.	4G/	4d\	.
.	.	.	.	8a/
.	4r	4.c\	4.e\	2g/
.	4C/	.	.	.
.	.	8B-\	8d\	.
=118	=118	=118	=118	=118
2r	4.F\	4A/	2c\	1r
.	.	4F/	.	.
.	8E\	.	.	.
4r	4D\	4.B-\	2r	.
4GG/	4D\	.	.	.
.	.	8A/	.	.
=119	=119	=119	=119	=119
4.C/	4.E\	4G/	1r	4r
.	.	4G/	.	4g/
8BB-/	8D\	.	.	.
4AA/	4C/	4.A/	.	4.cc\
4FF/	[4c\	.	.	.
.	.	8G/	.	8b-\
=120	=120	=120	=120	=120
4F\	4c\]	2F/	4r	4a/
4A\	4.c\	.	4c\	4f/
2G\	.	4r	4.g\	4.b-\
.	8d\	.	.	.
.	4B-\	4G/	.	.
.	.	.	8f\	8a/
=121	=121	=121	=121	=121
4r	1c	4.c\	4e\	2g/
4C/	.	.	2c\	.
.	.	8B-\	.	.
4.F\	.	4A/	.	2r
.	.	4F/	[4f\	.
8E\	.	.	.	.
=122	=122	=122	=122	=122
4D\	4F\	4.B-\	4f\]	2r
4GG/	4.G\	.	8f\L	.
.	.	8A/	8e\J	.
4.C/	.	4G/	4e\	4r
.	8F\	.	.	.
.	4E\	4G/	4e\	4g/
8BB-/	.	.	.	.
=123	=123	=123	=123	=123
4AA/	4C/	2.A/	1f	4.cc\
4FF/	4.c\	.	.	.
.	.	.	.	8b-\
4.F\	.	.	.	4a/
.	8B-\	.	.	.
.	4A\	4D/	.	4f/
8F\	.	.	.	.
=124	=124	=124	=124	=124
2BB-/	2D\	4F/	4r	4.b-\
.	.	4F/	2f\	.
.	.	.	.	8a/
2C/	4G\	4.c\	.	2g/
.	4G\	.	4e\	.
.	.	8B-\	.	.
=125	=125	=125	=125	=125
4.D\	4F\	4A/	4d\	1r
.	2B-\	4r	4d\	.
8E\	.	.	.	.
2F\	.	4r	2c\	.
.	4A\	[4f\	.	.
=126	=126	=126	=126	=126
1r	4G\	4f\]	2r	4r
.	4G\	4e\	.	2b-\
.	4F\	4d\	4r	.
.	4F\	4c\	[4f\	4a/
=127	=127	=127	=127	=127
1r	4.c\	2c\	4f\]	4g/
.	.	.	4e\	4g/
.	8B-\	.	.	.
.	4A\	4r	4c\	[2f/
.	4D\	[4B-\	4d\	.
=128	=128	=128	=128	=128
4r	4.F\	4B-\]	1c	2f/]
2F\	.	4A/	.	.
.	8F\	.	.	.
.	2C/	4G/	.	2r
4E\	.	4G/	.	.
=129	=129	=129	=129	=129
4D\	2B-\	2F/	4r	1r
4D\	.	.	2f\	.
2C/	4A\	2r	.	.
.	4G\	.	4e\	.
=130	=130	=130	=130	=130
8BB-/L	4G\	2r	4d\	2.b-\
8C/	.	.	.	.
8D/	4.F\	.	4d\	.
8E/J	.	.	.	.
4F\	.	4r	2c\	.
.	8G\L	.	.	.
4F\	8A\	[4f\	.	4a/
.	8B-\J	.	.	.
=131	=131	=131	=131	=131
2C/	2c\	4f\]	2r	4g/
.	.	4e\	.	4g/
4r	2r	4d\	4.B-\	2f/
[4BB-/	.	4d\	.	.
.	.	.	8A/	.
=132	=132	=132	=132	=132
4BB-/]	1r	4.d\	8G/L	2r
.	.	.	8F/J	.
4AA/	.	.	2F/	.
.	.	8c/L	.	.
4GG/	.	8.B-/	.	4r
.	.	16A/Jk	.	.
4GG/	.	4G/	4E/	[4b-\
=133	=133	=133	=133	=133
2FF/	4r	2c\	4F/	4b-\]
.	2c\	.	4f\	4a/
2r	.	2r	4e\	4g/
.	4B-\	.	[4d\	4g/
=134	=134	=134	=134	=134
4r	4A\	1r	8d\L]	2f/
.	.	.	8c\	.
2F\	4c\	.	8A\	.
.	.	.	8B-\J	.
.	4F\	.	4c\	4r
4E\	[4B-\	.	4G/	[4g/
=135	=135	=135	=135	=135
4D\	4B-\]	2r	4d\	8g/L]
.	.	.	.	8f/J
4F\	4A\	.	4c\	2f/
2C/	4G\	4r	2c\	.
.	4G\	[4c\	.	4e/
=136	=136	=136	=136	=136
1r	4F\	4c\]	4r	2f/
.	4.d\	4B-\	2f\	.
.	.	4A/	.	2r
.	8c\	.	.	.
.	[4c\	4c\	4e\	.
=137	=137	=137	=137	=137
2r	4c\]	2G/	4d\	1r
.	4B-\	.	4d\	.
[2F\	4c\	4.A/	2c\	.
.	[4A\	.	.	.
.	.	8B-\	.	.
=138	=138	=138	=138	=138
4F\]	4A\]	2c\	4r	1r
4E\	4G\	.	4.g\	.
4D\	4d\	4B-\	.	.
.	.	.	8f\	.
4F\	4c\	4A/	[4f\	.
=139	=139	=139	=139	=139
2C/	4.c\	2G/	4f\]	4r
.	.	.	4e\	2cc\
.	8B-\	.	.	.
2r	4A\	4F/	2f\	.
.	4d\	8D/L	.	4b-\
.	.	8E/J	.	.
=140	=140	=140	=140	=140
1r	2c\	8F/L	4r	4a/
.	.	8G/	.	.
.	.	8A/	2f\	4cc\
.	.	8B-/J	.	.
.	4r	2c\	.	2g/
.	[4c\	.	4e\	.
=141	=141	=141	=141	=141
2.F\	4c\]	1r	4d\	1r
.	4B-\	.	4f\	.
.	4A\	.	2c\	.
4E\	4c\	.	.	.
=142	=142	=142	=142	=142
4D\	2F\	2f\	4B-\	4r
4F\	.	.	4A/	2cc\
4C/	2r	4e\	4.G/	.
4G\	.	4d\	.	4b-\
.	.	.	8G/	.
=143	=143	=143	=143	=143
2F\	4r	4.f\	2c\	4a/
.	2c\	.	.	4cc\
.	.	8c\	.	.
2r	.	4e\	4r	4g/
.	4B-\	4d\	[4f\	[4dd\
=144	=144	=144	=144	=144
1r	4A\	1r	4f\]	8dd\L]
.	.	.	.	8cc\J
.	4c\	.	4e\	2cc\
.	2G\	.	4d\	.
.	.	.	4g\	4b-\
=145	=145	=145	=145	=145
4r	2r	2.A/	4e\	2cc\
2F\	.	.	4f\	.
.	4r	.	2c\	2r
4E\	[4G\	4G/	.	.
=146	=146	=146	=146	=146
4D\	8G\L]	4B-\	1r	2r
.	8F\J	.	.	.
4F\	2F\	4A/	.	.
2C/	.	2G/	.	4r
.	4E\	.	.	[4cc\
=147	=147	=147	=147	=147
2r	4F\	4A/	4r	4cc\]
.	4G\	4B-\	8d\L	4b-\
.	.	.	8e\J	.
4r	2F\	4.c\	4f\	4a/
[4F\	.	.	4c\	4cc\
.	.	8B-\	.	.
=148	=148	=148	=148	=148
4F\]	2r	4A/	2c\	4f/
4E\	.	4G/	.	8g/L
.	.	.	.	8a/J
4D\	4r	2F/	2r	4b-\
4F\	8A\L	.	.	[4a/
.	8B-\J	.	.	.
=149	=149	=149	=149	=149
2C/	4.c\	4r	8c\L	4a/]
.	.	.	8d\J	.
.	.	8G/L	4e-\	2g/
.	8C/L	8A/J	.	.
2r	8D/	4B-\	4d\	.
.	8E/J	.	.	.
.	4F\	4A/	4c\	4f/
=150	=150	=150	=150	=150
4r	2C/	2G/	4r	4e/
2C/	.	.	8c\L	8e/L
.	.	.	8d\J	8f/
.	4r	4r	4e-\	8g/
.	.	.	.	8a/J
4BB-/	4D\	8G/L	[4d\	[4g/
.	.	8A/J	.	.
=151	=151	=151	=151	=151
4GG/	4BB-/	4B-\	4d\]	8g/L]
.	.	.	.	8f/J
8AA/L	2C/	4A/	4.c\	2f/
8BB-/J	.	.	.	.
2C/	.	2G/	.	.
.	.	.	8B-\	.
.	4C/	.	4G/	4e/
=152	=152	=152	=152	=152
1FF;	1C;	1F;	1A;	1f;
==	==	==	==	==
*-	*-	*-	*-	*-
!!!ENC: Craig Stuart Sapp
!!!END: 2004/11/28/
